packages/gestalt-icons-android/vr-theme/ic_vr_reorder-images_gestalt.svg

<svg width="24" height="24" viewBox="0 0 24 24" fill="none" xmlns="http://www.w3.org/2000/svg">
<path d="M4.01168 9.47436C5.44828 6.80831 8.26374 5 11.5 5C14.096 5 16.4212 6.16354 17.9812 8H15V10H21V4H19V6.15169C17.0949 4.20756 14.4389 3 11.5 3C7.4992 3 4.02257 5.23798 2.25102 8.52564L4.01168 9.47436Z" fill="black"/>
<path fill-rule="evenodd" clip-rule="evenodd" d="M3 11C1.89543 11 1 11.8954 1 13V19C1 20.1046 1.89543 21 3 21H5C6.10457 21 7 20.1046 7 19V13C7 11.8954 6.10457 11 5 11H3ZM5 13H3L3 19H5V13Z" fill="black"/>
<path fill-rule="evenodd" clip-rule="evenodd" d="M19 12C17.8954 12 17 12.8954 17 14V18C17 19.1046 17.8954 20 19 20H21C22.1046 20 23 19.1046 23 18V14C23 12.8954 22.1046 12 21 12H19ZM19 14V18H21V14H19Z" fill="black"/>
<path fill-rule="evenodd" clip-rule="evenodd" d="M9 14C9 12.8954 9.89543 12 11 12H13C14.1046 12 15 12.8954 15 14V18C15 19.1046 14.1046 20 13 20H11C9.89543 20 9 19.1046 9 18V14ZM11 14H13V18H11V14Z" fill="black"/>
</svg>

<svg xmlns="http://www.w3.org/2000/svg" width="24" height="24"><path d="M4.01 9.47A8.5 8.5 0 0 1 17.98 8H15v2h6V4h-2v2.15A10.5 10.5 0 0 0 2.25 8.52zM3 11a2 2 0 0 0-2 2v6c0 1.1.9 2 2 2h2a2 2 0 0 0 2-2v-6a2 2 0 0 0-2-2zm2 8H3v-6h2zm14-7a2 2 0 0 0-2 2v4c0 1.1.9 2 2 2h2a2 2 0 0 0 2-2v-4a2 2 0 0 0-2-2zm2 2v4h-2v-4zM9 18c0 1.1.9 2 2 2h2a2 2 0 0 0 2-2v-4a2 2 0 0 0-2-2h-2a2 2 0 0 0-2 2zm2-4h2v4h-2z"/></svg>
